build/img/icons/viber.svg

<svg width="25" height="25" viewBox="0 0 25 25" fill="none" xmlns="http://www.w3.org/2000/svg">
<path d="M11.8751 0C9.86778 0.0291667 5.55528 0.358333 3.14591 2.56979C1.35633 4.36146 0.725077 6.97917 0.659452 10.226C0.593827 13.4719 0.50841 19.5583 6.37508 21.2083H6.3782L6.37403 23.725C6.37403 23.725 6.33549 24.7427 7.00945 24.951C7.81883 25.2031 8.29487 24.4302 9.07195 23.5948C9.49591 23.1365 10.0845 22.4656 10.5272 21.949C14.5376 22.2885 17.623 21.5156 17.9751 21.4021C18.7834 21.1396 23.3667 20.5521 24.1126 14.4677C24.8834 8.19688 23.7376 4.22813 21.6751 2.44063C21.0542 1.86771 18.5438 0.0447917 12.9511 0.0208333C12.9511 0.0208333 12.5397 -0.00520833 11.8709 0.003125L11.8751 0ZM11.9355 1.76354C12.5032 1.75938 12.8522 1.78125 12.8522 1.78125C17.5834 1.80208 19.849 3.22708 20.3751 3.70417C22.1199 5.19896 23.0105 8.775 22.3605 14.0135V14.0156C21.7313 19.0969 18.0126 19.4156 17.3272 19.6354C17.0355 19.7292 14.3251 20.4031 10.9178 20.1813C10.9178 20.1813 8.38028 23.2438 7.58758 24.0396C7.46258 24.1646 7.31674 24.2135 7.22091 24.1896C7.08549 24.1552 7.04799 23.9938 7.04904 23.7583L7.06987 19.5729C2.10945 18.1979 2.39799 13.0188 2.45529 10.3073C2.51154 7.59479 3.02091 5.37188 4.53445 3.87708C6.57612 2.03021 10.2365 1.775 11.9407 1.7625L11.9355 1.76354ZM12.3313 4.47396C12.2506 4.47803 12.1744 4.51285 12.1185 4.57126C12.0626 4.62968 12.0311 4.70728 12.0306 4.78814C12.0301 4.869 12.0605 4.947 12.1156 5.00615C12.1708 5.0653 12.2465 5.10111 12.3272 5.10625C14.0188 5.11667 15.3959 5.66563 16.523 6.76458C17.6407 7.85417 18.2105 9.33542 18.224 11.2792C18.2261 11.4531 18.3699 11.5917 18.5438 11.5917C18.6271 11.5906 18.7066 11.5567 18.7651 11.4975C18.8235 11.4382 18.8563 11.3583 18.8563 11.275C18.8417 9.20833 18.2126 7.52917 16.9647 6.3125C15.7251 5.10417 14.1605 4.48646 12.3324 4.47396H12.3313ZM8.20633 5.19792C7.98486 5.16725 7.75946 5.21007 7.56466 5.31979L7.55424 5.32188C7.10633 5.57917 6.70424 5.90729 6.36049 6.29271C6.35841 6.29688 6.35424 6.29688 6.35216 6.30104C6.07404 6.6375 5.91466 6.96563 5.87299 7.28854C5.86483 7.3367 5.86239 7.38565 5.8657 7.43438C5.8657 7.57604 5.88862 7.71563 5.93341 7.85104L5.94695 7.86146C6.08758 8.36146 6.43966 9.19063 7.20216 10.574C7.63966 11.374 8.14278 12.1365 8.70841 12.851C8.98966 13.2094 9.29174 13.5521 9.61466 13.876L9.75216 14.0135C10.0751 14.3344 10.4188 14.6385 10.7772 14.9198C11.4923 15.4855 12.2541 15.9898 13.0542 16.4271C14.4376 17.1906 15.2688 17.5417 15.7667 17.6833L15.7772 17.6979C15.9584 17.7572 16.1502 17.7767 16.3397 17.7552C16.6626 17.7177 16.9928 17.5573 17.3272 17.276C17.3313 17.276 17.3303 17.274 17.3355 17.2708C17.7209 16.9271 18.047 16.5208 18.3042 16.075L18.3074 16.0646C18.5417 15.6146 18.4636 15.1875 18.1199 14.8979C18.1157 14.8979 17.3928 14.2938 17.0397 14.0333C16.6647 13.7677 16.2792 13.5208 15.8803 13.2938C15.349 12.9969 14.8053 13.1833 14.5803 13.475L14.1147 14.0625C13.8751 14.3573 13.4303 14.3188 13.4303 14.3188C10.1803 13.4896 9.31049 10.199 9.31049 10.199C9.31049 10.199 9.27195 9.75521 9.56883 9.51563L10.1553 9.04896C10.4438 8.825 10.6303 8.28125 10.3324 7.74896C10.1061 7.34926 9.85926 6.96158 9.59278 6.5875C9.31304 6.22143 9.02477 5.86196 8.7282 5.50938C8.59757 5.3458 8.41155 5.23574 8.20528 5.2L8.20633 5.19792ZM12.8834 6.11458C12.7997 6.1121 12.7184 6.14297 12.6575 6.2004C12.5965 6.25783 12.5609 6.33712 12.5584 6.42083C12.5559 6.50454 12.5868 6.58581 12.6442 6.64676C12.7017 6.70771 12.781 6.74335 12.8647 6.74583C14.073 6.83438 14.9657 7.23125 15.6199 7.94375C16.2761 8.66042 16.5886 9.53125 16.5636 10.6208C16.5682 10.7009 16.6028 10.7764 16.6605 10.8321C16.7182 10.8878 16.7948 10.9197 16.8751 10.9214C16.9553 10.9232 17.0332 10.8945 17.0933 10.8413C17.1533 10.7881 17.1911 10.7142 17.199 10.6344C17.2251 9.41042 16.8511 8.35 16.0876 7.51563C15.3167 6.67188 14.2365 6.21042 12.9105 6.11354H12.8855L12.8834 6.11458ZM13.3657 7.8125C13.2855 7.81368 13.2087 7.84515 13.1507 7.9006C13.0928 7.95605 13.0579 8.03138 13.0532 8.11146C13.0449 8.28542 13.1782 8.43438 13.3532 8.44479C13.898 8.47396 14.2647 8.62708 14.5126 8.88438C14.7626 9.13958 14.9167 9.53021 14.9459 10.0969C14.9566 10.1754 14.9964 10.2471 15.0574 10.2977C15.1184 10.3483 15.1962 10.3742 15.2753 10.3703C15.3545 10.3664 15.4293 10.3329 15.485 10.2765C15.5407 10.2201 15.5732 10.1448 15.5761 10.0656C15.5449 9.39479 15.3522 8.83854 14.972 8.44375C14.5897 8.05 14.0417 7.84583 13.3886 7.81146H13.3699L13.3657 7.8125Z" fill="#5D21DC"/>
</svg>

<svg width="25" height="25" fill="none" xmlns="http://www.w3.org/2000/svg">
    <path d="M11.875 0c-2.007.03-6.32.358-8.73 2.57C1.357 4.36.726 6.98.66 10.226c-.065 3.246-.15 9.332 5.716 10.982h.003l-.004 2.517s-.039 1.018.635 1.226c.81.252 1.286-.52 2.063-1.356a65.434 65.434 0 0 0 1.455-1.646c4.01.34 7.096-.433 7.448-.547.808-.262 5.392-.85 6.138-6.934.77-6.271-.375-10.24-2.438-12.027-.62-.573-3.131-2.396-8.724-2.42 0 0-.411-.026-1.08-.018L11.875 0zm.06 1.764c.568-.005.917.017.917.017 4.731.021 6.997 1.446 7.523 1.923 1.745 1.495 2.636 5.071 1.985 10.31v.002c-.629 5.08-4.347 5.4-5.033 5.62-.292.093-3.002.767-6.41.545 0 0-2.537 3.063-3.33 3.859-.124.125-.27.174-.366.15-.136-.035-.173-.196-.172-.432l.02-4.185c-4.96-1.375-4.671-6.554-4.614-9.266.057-2.712.566-4.935 2.08-6.43 2.041-1.847 5.701-2.102 7.406-2.114h-.006zm.396 2.71a.317.317 0 0 0-.004.632c1.692.01 3.069.56 4.196 1.659 1.118 1.09 1.688 2.57 1.701 4.514a.318.318 0 0 0 .32.313.317.317 0 0 0 .312-.317c-.014-2.067-.643-3.746-1.891-4.963-1.24-1.208-2.804-1.826-4.633-1.838zm-4.125.724a1.022 1.022 0 0 0-.641.122l-.01.002a4.81 4.81 0 0 0-1.195.97c-.002.005-.006.005-.008.009-.278.337-.437.665-.479.988a.621.621 0 0 0-.007.145c0 .142.023.282.067.417l.014.01c.14.5.493 1.33 1.255 2.713.438.8.94 1.563 1.506 2.277.282.358.584.701.907 1.025l.137.138c.323.32.667.625 1.025.906a16.17 16.17 0 0 0 2.277 1.507c1.384.764 2.215 1.115 2.713 1.256l.01.015c.181.06.373.079.563.057.323-.037.653-.198.987-.479.004 0 .003-.002.008-.005.386-.344.712-.75.97-1.196l.002-.01c.235-.45.157-.878-.187-1.167-.004 0-.727-.604-1.08-.865-.375-.265-.76-.512-1.16-.74-.531-.296-1.075-.11-1.3.182l-.465.588c-.24.294-.685.256-.685.256-3.25-.83-4.12-4.12-4.12-4.12s-.038-.444.259-.683l.586-.467c.289-.224.475-.768.177-1.3-.226-.4-.473-.787-.74-1.161-.279-.367-.567-.726-.864-1.079a.856.856 0 0 0-.523-.309l.001-.002zm4.677.917a.316.316 0 1 0-.018.63c1.208.09 2.1.486 2.755 1.199.656.716.969 1.587.944 2.677a.32.32 0 0 0 .635.013c.026-1.224-.348-2.284-1.111-3.118-.771-.844-1.852-1.306-3.178-1.402h-.027zm.483 1.697a.318.318 0 0 0-.313.3.319.319 0 0 0 .3.333c.545.029.912.182 1.16.44.25.255.404.645.433 1.212a.316.316 0 0 0 .63-.031c-.031-.671-.224-1.227-.604-1.622-.382-.394-.93-.598-1.583-.633h-.02l-.003.002z" fill="#5D21DC"/>
</svg>
